svgs/sharp-solid/signal-bars.svg

<svg xmlns="http://www.w3.org/2000/svg" viewBox="0 0 640 512"><!--! Font Awesome Pro 6.6.0 by @fontawesome - https://fontawesome.com License - https://fontawesome.com/license (Commercial License) Copyright 2024 Fonticons, Inc. --><path d="M608 0L512 0l0 512 96 0L608 0zM352 128l0 384 96 0 0-384-96 0zM288 256l-96 0 0 256 96 0 0-256zM128 384l-96 0 0 128 96 0 0-128z"/></svg>

<svg xmlns="http://www.w3.org/2000/svg" viewBox="0 0 640 512"><!--! Font Awesome Pro 6.4.0 by @fontawesome - https://fontawesome.com License - https://fontawesome.com/license (Commercial License) Copyright 2023 Fonticons, Inc. --><path d="M608 0H512V512h96V0zM352 128V512h96V128H352zM288 256H192V512h96V256zM128 384H32V512h96V384z"/></svg>
